;FLAVOR:Marlin
;TIME:11831
;Filament used: 13.0385m
;Layer height: 0.2
;MINX:68
;MINY:50.832
;MINZ:0.2
;MAXX:142
;MAXY:86.832
;MAXZ:100
;Generated with Cura_SteamEngine 4.6.2
M140 S65
M105
M190 S65
M104 S200
M105
M109 S200
M82 ;absolute extrusion mode
G21 ;metric values
G90 ;absolute positioning
M82 ;set extruder to absolute mode
M107 ;start with the fan off
G28 X0 Y0 ;move X/Y to min endstops
G28 Z0 ;move Z to min endstops
G1 Z15.0 F100 ;move the platform down 15mm
G92 E0 ;zero the extruded length
G1 F200 E3 ;extrude 3mm of feed stock
G92 E0 ;zero the extruded length again
G1 F100
G0 Y20 F100
M117 Printing...
G5
G92 E0
G92 E0
G1 F2400 E-6
;LAYER_COUNT:500
;LAYER:0
M106 S255
M204 S3000
M205 X10 Y10
G1 F600 Z0.275
G0 F3000 X134.869 Y51.642 Z0.275
M204 S1800
M205 X8 Y8
;TYPE:SKIRT
G1 F600 Z0.2
G1 F2400 E0
G1 X135.775 Y51.734 E0.03029
G1 X136.406 Y51.855 E0.05166
G1 X137.031 Y52.015 E0.07312
G1 X137.765 Y52.317 E0.09951
G1 X138.473 Y52.718 E0.12658
G1 X138.985 Y53.109 E0.148
G1 X139.534 Y53.647 E0.17357
G1 X139.955 Y54.136 E0.19503
G1 X140.312 Y54.673 E0.21648
G1 X140.627 Y55.289 E0.23949
G1 X140.873 Y55.885 E0.26094
G1 X141.044 Y56.507 E0.28239
G1 X141.144 Y57.159 E0.30433
G1 X141.184 Y57.727 E0.32327
G1 X141.199 Y58.621 E0.35301
G1 X141.2 Y80.163 E1.0695
G1 X141.19 Y80.89 E1.09368
G1 X141.141 Y81.532 E1.1151
G1 X141.013 Y82.164 E1.13654
G1 X140.808 Y82.775 E1.15798
G1 X140.528 Y83.356 E1.17943
G1 X140.179 Y83.898 E1.20087
G1 X139.766 Y84.393 E1.22231
G1 X139.295 Y84.833 E1.24375
G1 X138.772 Y85.211 E1.26521
G1 X138.207 Y85.521 E1.28665
G1 X137.608 Y85.76 E1.3081
G1 X136.985 Y85.922 E1.32951
G1 X136.144 Y86.016 E1.35765
G1 X74.754 Y86.032 E3.39949
G1 X74.07 Y86.022 E3.42225
G1 X73.022 Y85.918 E3.45727
G1 X72.398 Y85.756 E3.47872
G1 X71.799 Y85.518 E3.50015
G1 X71.234 Y85.208 E3.52159
G1 X70.712 Y84.83 E3.54302
G1 X70.24 Y84.39 E3.56449
G1 X69.827 Y83.896 E3.5859
G1 X69.477 Y83.354 E3.60736
G1 X69.198 Y82.773 E3.6288
G1 X68.993 Y82.162 E3.65023
G1 X68.865 Y81.53 E3.67168
G1 X68.816 Y80.903 E3.6926
G1 X68.801 Y80.031 E3.7216
G1 X68.8 Y58.543 E4.4363
G1 X68.81 Y57.883 E4.45825
G1 X68.876 Y57.035 E4.48654
G1 X68.981 Y56.399 E4.50798
G1 X69.261 Y55.534 E4.53822
G1 X69.633 Y54.756 E4.5669
G1 X69.979 Y54.232 E4.58779
G1 X70.568 Y53.516 E4.61863
G1 X71.117 Y53.024 E4.64315
G1 X71.842 Y52.512 E4.67267
G1 X72.427 Y52.213 E4.69452
G1 X73.245 Y51.901 E4.72364
G1 X73.874 Y51.759 E4.74508
G1 X74.393 Y51.701 E4.76245
G1 X74.918 Y51.669 E4.77995
G1 X76.508 Y51.633 E4.83284
G1 X134.151 Y51.632 E6.75006
G1 X134.869 Y51.642 E6.77394
M204 S3000
M205 X10 Y10
G0 F3000 X134.874 Y51.242
M204 S1800
M205 X8 Y8
G1 F2400 X135.851 Y51.341 E6.8066
G1 X136.482 Y51.462 E6.82797
G1 X137.13 Y51.627 E6.85021
G1 X137.945 Y51.96 E6.87949
G1 X138.674 Y52.372 E6.90735
G1 X139.209 Y52.774 E6.9296
G1 X139.588 Y53.129 E6.94688
G1 X140.258 Y53.874 E6.9802
G1 X140.632 Y54.429 E7.00246
G1 X140.987 Y55.114 E7.02812
G1 X141.244 Y55.732 E7.05038
G1 X141.425 Y56.375 E7.0726
G1 X141.54 Y57.108 E7.09728
G1 X141.584 Y57.72 E7.11769
G1 X141.599 Y58.614 E7.14742
G1 X141.6 Y80.091 E7.86175
G1 X141.589 Y80.895 E7.8885
G1 X141.54 Y81.562 E7.91074
G1 X141.412 Y82.219 E7.933
G1 X141.206 Y82.855 E7.95524
G1 X140.926 Y83.463 E7.9775
G1 X140.575 Y84.033 E7.99977
G1 X140.159 Y84.557 E8.02202
G1 X139.684 Y85.027 E8.04424
G1 X139.155 Y85.438 E8.06652
G1 X138.582 Y85.782 E8.08875
G1 X137.971 Y86.056 E8.11103
G1 X137.333 Y86.255 E8.13325
G1 X136.675 Y86.376 E8.15551
G1 X136.156 Y86.416 E8.17282
G1 X74.754 Y86.432 E10.21506
G1 X74.064 Y86.422 E10.23801
G1 X72.97 Y86.316 E10.27457
G1 X72.322 Y86.152 E10.2968
G1 X71.697 Y85.912 E10.31907
G1 X71.106 Y85.599 E10.34131
G1 X70.556 Y85.218 E10.36356
G1 X70.056 Y84.774 E10.3858
G1 X69.611 Y84.274 E10.40807
G1 X69.23 Y83.724 E10.43032
G1 X68.917 Y83.132 E10.45259
G1 X68.677 Y82.508 E10.47483
G1 X68.513 Y81.859 E10.49709
G1 X68.416 Y80.91 E10.52882
G1 X68.401 Y80.038 E10.55783
G1 X68.4 Y58.543 E11.27276
G1 X68.41 Y57.877 E11.29491
G1 X68.478 Y56.995 E11.32433
G1 X68.586 Y56.335 E11.34658
G1 X68.771 Y55.692 E11.36883
G1 X68.977 Y55.177 E11.38728
G1 X69.274 Y54.577 E11.40954
G1 X69.66 Y53.992 E11.43286
G1 X70.263 Y53.256 E11.4645
G1 X70.872 Y52.708 E11.49175
G1 X71.616 Y52.181 E11.52208
G1 X72.268 Y51.846 E11.54646
G1 X73.108 Y51.525 E11.57636
G1 X73.76 Y51.372 E11.59864
G1 X74.368 Y51.301 E11.619
G1 X74.893 Y51.269 E11.63649
G1 X76.5 Y51.233 E11.68996
G1 X134.151 Y51.232 E13.60744
G1 X134.874 Y51.242 E13.63148
M204 S3000
M205 X10 Y10
G0 F3000 X134.88 Y50.842
M204 S1800
M205 X8 Y8
G1 F2400 X135.57 Y50.891 E13.65449
G1 X136.557 Y51.069 E13.68785
G1 X137.228 Y51.239 E13.71087
G1 X138.124 Y51.603 E13.74304
G1 X138.875 Y52.025 E13.77169
G1 X139.431 Y52.438 E13.79473
G1 X139.874 Y52.85 E13.81485
G1 X140.561 Y53.612 E13.84897
G1 X140.952 Y54.183 E13.87199
G1 X141.203 Y54.645 E13.88948
G1 X141.613 Y55.577 E13.92334
G1 X141.805 Y56.243 E13.9464
G1 X141.906 Y56.814 E13.96568
G1 X141.984 Y57.713 E13.99569
G1 X141.999 Y58.607 E14.02543
G1 X142 Y80.091 E14.73999
G1 X141.989 Y80.901 E14.76694
G1 X141.94 Y81.591 E14.78994
G1 X141.811 Y82.272 E14.813
G1 X141.605 Y82.933 E14.83603
G1 X141.324 Y83.566 E14.85906
G1 X140.972 Y84.162 E14.88208
G1 X140.553 Y84.714 E14.90513
G1 X140.074 Y85.214 E14.92816
G1 X139.54 Y85.655 E14.9512
G1 X138.959 Y86.032 E14.97423
G1 X138.339 Y86.339 E14.99724
G1 X137.687 Y86.573 E15.02028
G1 X137.012 Y86.73 E15.04333
G1 X136.168 Y86.815 E15.07155
G1 X74.754 Y86.832 E17.11418
G1 X74.058 Y86.822 E17.13734
G1 X72.92 Y86.713 E17.17536
G1 X72.247 Y86.548 E17.19841
G1 X71.598 Y86.306 E17.22144
G1 X70.982 Y85.991 E17.24446
G1 X70.405 Y85.607 E17.26751
G1 X69.877 Y85.159 E17.29054
G1 X69.404 Y84.653 E17.31358
G1 X68.992 Y84.096 E17.33662
G1 X68.648 Y83.496 E17.35962
G1 X68.374 Y82.859 E17.38269
G1 X68.176 Y82.196 E17.4057
G1 X68.056 Y81.514 E17.42873
G1 X68.016 Y80.917 E17.44863
G1 X68.001 Y80.045 E17.47764
G1 X68 Y58.543 E18.1928
G1 X68.01 Y57.871 E18.21515
G1 X68.04 Y57.36 E18.23218
G1 X68.19 Y56.271 E18.26874
G1 X68.377 Y55.604 E18.29178
G1 X68.609 Y55.021 E18.31265
G1 X68.915 Y54.4 E18.33568
G1 X69.34 Y53.751 E18.36148
G1 X69.958 Y52.997 E18.3939
G1 X70.626 Y52.392 E18.42388
G1 X71.389 Y51.851 E18.45499
G1 X72.108 Y51.479 E18.48191
G1 X72.971 Y51.148 E18.51266
G1 X73.644 Y50.986 E18.53568
G1 X74.344 Y50.902 E18.55913
G1 X74.869 Y50.87 E18.57662
G1 X76.492 Y50.833 E18.63062
G1 X134.151 Y50.832 E20.54836
G1 X134.88 Y50.842 E20.57261
M204 S3000
M205 X10 Y10
G1 F2400 E14.57261
;MESH:remocon_holder v2.stl
G0 F3000 X135.102 Y56.204
G0 X134.839 Y57.451
G0 X134.992 Y57.847
M204 S1800
M205 X8 Y8
;TYPE:WALL-INNER
G1 F2400 E20.57261
G1 F1500 X135 Y57.918 E20.57499
G1 X135 Y79.827 E21.30369
G1 X75.199 Y79.832 E23.29268
G1 X75 Y79.832 E23.29929
G1 X75 Y79.633 E23.30358
G1 X75 Y57.919 E24.02579
G1 X75.008 Y57.857 E24.02787
G1 X75.649 Y57.832 E24.0492
G1 X134.817 Y57.832 E26.01714
G1 X134.992 Y57.847 E26.02298
M204 S3000
M205 X10 Y10
G0 F3000 X135.388 Y57.8
M204 S1800
M205 X8 Y8
G1 F1500 X135.4 Y57.896 E26.0262
G1 X135.4 Y80.227 E26.76893
G1 X74.799 Y80.232 E28.78453
G1 X74.6 Y80.232 E28.79115
G1 X74.6 Y80.033 E28.79543
G1 X74.6 Y57.894 E29.53177
G1 X74.621 Y57.725 E29.53744
G1 X74.659 Y57.634 E29.54072
G1 X74.725 Y57.549 E29.5443
G1 X74.803 Y57.49 E29.54755
G1 X74.87 Y57.462 E29.54997
G1 X75.633 Y57.432 E29.57536
G1 X134.839 Y57.432 E31.54456
G1 X135.118 Y57.456 E31.55388
G1 X135.196 Y57.49 E31.55671
G1 X135.283 Y57.557 E31.56036
G1 X135.342 Y57.634 E31.56359
G1 X135.38 Y57.726 E31.5669
G1 X135.388 Y57.8 E31.56937
M204 S3000
M205 X10 Y10
G0 F3000 X135.4 Y57.142
M204 S1800
M205 X8 Y8
;TYPE:WALL-OUTER
G1 F1500 X135.568 Y57.272 E31.57644
G1 X135.693 Y57.436 E31.5833
G1 X135.77 Y57.622 E31.58999
G1 X135.8 Y57.874 E31.59843
G1 X135.8 Y80.627 E32.3552
G1 X74.4 Y80.632 E34.39737
G1 X74.2 Y80.632 E34.40402
G1 X74.2 Y80.432 E34.40833
G1 X74.2 Y57.868 E35.15881
G1 X74.231 Y57.62 E35.16713
G1 X74.31 Y57.432 E35.17391
G1 X74.44 Y57.264 E35.18097
G1 X74.604 Y57.139 E35.18783
G1 X74.784 Y57.065 E35.1943
G1 X75.617 Y57.032 E35.22203
G1 X134.851 Y57.032 E37.19216
G1 X135.216 Y57.064 E37.20435
G1 X135.4 Y57.142 E37.211
M204 S3000
M205 X10 Y10
G0 F3000 X135.558 Y57.264
G0 X135.289 Y57.612
G0 X134.61 Y58.222
M204 S1800
M205 X8 Y8
;TYPE:SKIN
G1 F1500 X134.61 Y79.437 E37.91661
G1 X75.39 Y79.442 E39.88628
G1 X75.39 Y58.233 E40.59169
G1 X75.664 Y58.222 E40.60081
G1 X134.61 Y58.222 E42.56136
M204 S3000
M205 X10 Y10
G0 F3000 X134.229 Y58.993
M204 S1800
M205 X8 Y8
G1 F1500 X133.838 Y58.602 E42.57975
G1 X134.229 Y58.601 E42.59276
M204 S3000
M205 X10 Y10
G0 F3000 X133.838 Y58.602
M204 S1800
M205 X8 Y8
G1 F1500 X133.272 Y58.602 E42.61158
G1 X134.229 Y59.558 E42.65657
G1 X134.229 Y60.124 E42.6754
G1 X132.706 Y58.602 E42.74701
G1 X132.141 Y58.602 E42.76581
G1 X134.229 Y60.69 E42.86402
G1 X134.229 Y61.255 E42.88281
G1 X131.575 Y58.602 E43.00762
G1 X131.009 Y58.602 E43.02645
G1 X134.229 Y61.821 E43.17788
G1 X134.229 Y62.387 E43.19671
G1 X130.444 Y58.602 E43.37474
G1 X129.878 Y58.602 E43.39357
G1 X134.229 Y62.953 E43.59823
G1 X134.229 Y63.518 E43.61702
G1 X129.312 Y58.602 E43.84828
G1 X128.747 Y58.602 E43.86707
G1 X134.229 Y64.084 E44.12492
G1 X134.229 Y64.65 E44.14375
G1 X128.181 Y58.602 E44.42823
G1 X127.615 Y58.602 E44.44705
G1 X134.229 Y65.215 E44.75813
G1 X134.229 Y65.781 E44.77696
G1 X127.05 Y58.602 E45.11464
G1 X126.484 Y58.602 E45.13346
G1 X134.229 Y66.347 E45.49776
G1 X134.229 Y66.912 E45.51655
G1 X125.918 Y58.602 E45.90745
G1 X125.353 Y58.602 E45.92625
G1 X134.229 Y67.478 E46.34375
G1 X134.229 Y68.044 E46.36257
G1 X124.787 Y58.602 E46.80669
G1 X124.221 Y58.602 E46.82552
G1 X134.229 Y68.609 E47.29624
G1 X134.229 Y69.175 E47.31507
G1 X123.656 Y58.602 E47.81239
G1 X123.09 Y58.602 E47.83121
G1 X134.229 Y69.741 E48.35516
G1 X134.229 Y70.306 E48.37395
G1 X122.524 Y58.602 E48.92449
G1 X121.958 Y58.602 E48.94332
G1 X134.229 Y70.872 E49.52049
G1 X134.229 Y71.438 E49.53931
G1 X121.393 Y58.602 E50.14308
G1 X120.827 Y58.602 E50.1619
G1 X134.229 Y72.003 E50.79227
G1 X134.229 Y72.569 E50.81109
G1 X120.261 Y58.602 E51.46808
G1 X119.696 Y58.602 E51.48687
G1 X134.229 Y73.135 E52.17046
G1 X134.229 Y73.701 E52.18929
G1 X119.13 Y58.602 E52.8995
G1 X118.564 Y58.602 E52.91832
G1 X134.229 Y74.266 E53.65513
G1 X134.229 Y74.832 E53.67396
G1 X117.999 Y58.602 E54.43737
G1 X117.433 Y58.602 E54.45619
G1 X134.229 Y75.398 E55.24622
G1 X134.229 Y75.963 E55.26502
G1 X116.867 Y58.602 E56.08165
G1 X116.302 Y58.602 E56.10044
G1 X134.229 Y76.529 E56.94367
G1 X134.229 Y77.095 E56.9625
G1 X115.736 Y58.602 E57.83235
G1 X115.17 Y58.602 E57.85118
G1 X134.229 Y77.66 E58.74763
G1 X134.229 Y78.226 E58.76645
G1 X114.605 Y58.602 E59.68951
G1 X114.039 Y58.602 E59.70833
G1 X134.229 Y78.792 E60.65801
G1 X134.229 Y79.056 E60.66679
G1 X133.928 Y79.056 E60.6768
G1 X113.473 Y58.602 E61.63892
G1 X112.907 Y58.602 E61.65774
G1 X133.362 Y79.056 E62.61986
G1 X132.796 Y79.056 E62.63868
G1 X112.342 Y58.602 E63.60078
G1 X111.776 Y58.602 E63.6196
G1 X132.231 Y79.056 E64.58172
G1 X131.665 Y79.056 E64.60055
G1 X111.21 Y58.602 E65.56266
G1 X110.645 Y58.602 E65.58145
G1 X131.099 Y79.056 E66.54355
G1 X130.534 Y79.056 E66.56234
G1 X110.079 Y58.602 E67.52446
G1 X109.513 Y58.602 E67.54328
G1 X129.968 Y79.056 E68.5054
G1 X129.402 Y79.056 E68.52422
G1 X108.948 Y58.602 E69.48632
G1 X108.382 Y58.602 E69.50514
G1 X128.836 Y79.056 E70.46724
G1 X128.271 Y79.056 E70.48603
G1 X107.816 Y58.602 E71.44815
G1 X107.251 Y58.602 E71.46694
G1 X127.705 Y79.056 E72.42903
G1 X127.139 Y79.056 E72.44786
G1 X106.685 Y58.602 E73.40995
G1 X106.119 Y58.602 E73.42877
G1 X126.574 Y79.056 E74.39089
G1 X126.008 Y79.056 E74.40972
G1 X105.554 Y58.602 E75.37181
G1 X104.988 Y58.602 E75.39064
G1 X125.442 Y79.056 E76.35273
G1 X124.877 Y79.056 E76.37152
G1 X104.422 Y58.602 E77.33364
G1 X103.857 Y58.602 E77.35243
G1 X124.312 Y79.057 E78.31457
G1 X123.746 Y79.057 E78.3334
G1 X103.291 Y58.602 E79.29554
G1 X102.725 Y58.602 E79.31436
G1 X123.18 Y79.057 E80.2765
G1 X122.615 Y79.057 E80.29529
G1 X102.159 Y58.602 E81.25746
G1 X101.594 Y58.602 E81.27625
G1 X122.049 Y79.057 E82.23839
G1 X121.483 Y79.057 E82.25722
G1 X101.028 Y58.602 E83.21936
G1 X100.462 Y58.602 E83.23818
G1 X120.918 Y79.057 E84.20035
G1 X120.352 Y79.057 E84.21917
G1 X99.897 Y58.602 E85.18131
G1 X99.331 Y58.602 E85.20014
G1 X119.786 Y79.057 E86.16228
G1 X119.221 Y79.057 E86.18107
G1 X98.765 Y58.602 E87.14323
G1 X98.2 Y58.602 E87.16202
G1 X118.655 Y79.057 E88.12417
G1 X118.089 Y79.057 E88.14299
G1 X97.634 Y58.602 E89.10513
G1 X97.068 Y58.602 E89.12396
G1 X117.523 Y79.057 E90.0861
G1 X116.958 Y79.057 E90.10489
G1 X96.503 Y58.602 E91.06703
G1 X95.937 Y58.602 E91.08585
G1 X116.392 Y79.057 E92.048
G1 X115.826 Y79.057 E92.06682
G1 X95.371 Y58.602 E93.02896
G1 X94.806 Y58.602 E93.04775
G1 X115.261 Y79.057 E94.00989
G1 X114.696 Y79.058 E94.02869
G1 X94.24 Y58.602 E94.99087
G1 X93.674 Y58.602 E95.0097
G1 X114.13 Y79.058 E95.97189
G1 X113.564 Y79.058 E95.99071
G1 X93.108 Y58.602 E96.9529
G1 X92.543 Y58.602 E96.97169
G1 X112.999 Y79.058 E97.93388
G1 X112.433 Y79.058 E97.9527
G1 X91.977 Y58.602 E98.91489
G1 X91.411 Y58.602 E98.93372
G1 X111.867 Y79.058 E99.8959
G1 X111.302 Y79.058 E99.9147
G1 X90.846 Y58.602 E100.87688
G1 X90.28 Y58.602 E100.89571
G1 X110.736 Y79.058 E101.8579
G1 X110.17 Y79.058 E101.87672
G1 X89.714 Y58.602 E102.83891
G1 X89.149 Y58.602 E102.8577
G1 X109.605 Y79.058 E103.81989
G1 X109.039 Y79.058 E103.83871
G1 X88.583 Y58.602 E104.8009
G1 X88.017 Y58.602 E104.81973
G1 X108.473 Y79.058 E105.78191
G1 X107.908 Y79.058 E105.80071
G1 X87.452 Y58.602 E106.76289
G1 X86.886 Y58.602 E106.78172
G1 X107.342 Y79.058 E107.74391
G1 X106.776 Y79.058 E107.76273
G1 X86.32 Y58.602 E108.72492
G1 X85.755 Y58.602 E108.74371
G1 X106.21 Y79.058 E109.70587
G1 X105.645 Y79.058 E109.72467
G1 X85.189 Y58.602 E110.68685
G1 X84.623 Y58.602 E110.70568
G1 X105.079 Y79.058 E111.66787
G1 X104.514 Y79.058 E111.68666
G1 X84.058 Y58.602 E112.64885
G1 X83.492 Y58.602 E112.66767
G1 X103.948 Y79.058 E113.62986
G1 X103.383 Y79.058 E113.64865
G1 X82.926 Y58.602 E114.61086
G1 X82.36 Y58.602 E114.62969
G1 X102.817 Y79.058 E115.5919
G1 X102.251 Y79.058 E115.61072
G1 X81.795 Y58.602 E116.57291
G1 X81.229 Y58.602 E116.59174
G1 X101.686 Y79.058 E117.55395
G1 X101.12 Y79.058 E117.57277
G1 X80.663 Y58.602 E118.53498
G1 X80.098 Y58.602 E118.55378
G1 X100.554 Y79.058 E119.51596
G1 X99.989 Y79.058 E119.53475
G1 X79.532 Y58.602 E120.49697
G1 X78.966 Y58.602 E120.51579
G1 X99.423 Y79.058 E121.478
G1 X98.857 Y79.058 E121.49683
G1 X78.401 Y58.602 E122.45902
G1 X77.835 Y58.602 E122.47784
G1 X98.292 Y79.058 E123.44005
G1 X97.726 Y79.058 E123.45888
G1 X77.269 Y58.602 E124.42109
G1 X76.704 Y58.602 E124.43988
G1 X97.16 Y79.058 E125.40207
G1 X96.595 Y79.058 E125.42086
G1 X76.138 Y58.602 E126.38307
G1 X75.769 Y58.602 E126.39534
G1 X75.769 Y58.798 E126.40186
G1 X96.029 Y79.058 E127.35483
G1 X95.463 Y79.058 E127.37366
G1 X75.769 Y59.364 E128.3
G1 X75.769 Y59.93 E128.31883
G1 X94.898 Y79.059 E129.2186
G1 X94.332 Y79.059 E129.23742
G1 X75.769 Y60.495 E130.11059
G1 X75.769 Y61.061 E130.12942
G1 X93.767 Y79.059 E130.97599
G1 X93.201 Y79.059 E130.99481
G1 X75.769 Y61.627 E131.81476
G1 X75.769 Y62.192 E131.83355
G1 X92.635 Y79.059 E132.6269
G1 X92.07 Y79.059 E132.64569
G1 X75.769 Y62.758 E133.41244
G1 X75.769 Y63.324 E133.43127
G1 X91.504 Y79.059 E134.17139
G1 X90.938 Y79.059 E134.19022
G1 X75.769 Y63.889 E134.90374
G1 X75.769 Y64.455 E134.92257
G1 X90.373 Y79.059 E135.6095
G1 X89.807 Y79.059 E135.62832
G1 X75.769 Y65.021 E136.28863
G1 X75.769 Y65.586 E136.30742
G1 X89.241 Y79.059 E136.94112
G1 X88.676 Y79.059 E136.95992
G1 X75.769 Y66.152 E137.56702
G1 X75.769 Y66.718 E137.58585
G1 X88.11 Y79.059 E138.16633
G1 X87.544 Y79.059 E138.18516
G1 X75.769 Y67.284 E138.73902
G1 X75.769 Y67.849 E138.75781
G1 X86.979 Y79.059 E139.28509
G1 X86.413 Y79.059 E139.30392
G1 X75.769 Y68.415 E139.80458
G1 X75.769 Y68.981 E139.8234
G1 X85.847 Y79.059 E140.29744
G1 X85.282 Y79.06 E140.31623
G1 X75.769 Y69.546 E140.76372
G1 X75.769 Y70.112 E140.78254
G1 X84.717 Y79.06 E141.20343
